X:1
T: Connaught Lasses' Reel
C:
R:Reel
Q: 232
K:D
M:4/4
L:1/8
|:D2 ((3FED) FA AF|G2 BG FA Bc|dc dB Ad ef|gf ed cB AF|
D2 ((3FED) FF FF|G2 BG FA Bc|ec df ed cB|1AG FE DA, B,C:|2AG FE D2 fg|
|:a2 ag af df|gf ed cB AF|G2 BG F2 ef|gf ed c2 eA|
|1a2 ag af df|gf ed cB AF|G2 BG F2 AF|A,2 C2 D2 fg:|
|2df a^g af df|gf ed cB Af|gf ge fc dB|AG FE DA, B,C|
|:D2 ((3FED) FA AF|G2 BG FA Bc|dc dB Ad ef|gf ed cB AF|
D2 ((3FED) FF FF|G2 BG FA Bc|ec df ed cB|1AG FE DA, B,C:|2AG FE D2 D2||
